X: 312
T: Beyâtî Sazsemâîsi
C: Nâyî Osman Dede
O: Turkey
F: http://compmusic.upf.edu/node/140
N: beyati--sazsemaisi--aksaksemai----nayi_osman_dede
N: makam= beyati
N: form= sazsemaisi
N: usul= aksaksemai = 10/8
M: 10/8
L: 1/16
K: C _2/4B   
Q: 1/4=144
%%MIDI tuningsystem comma53
d4 ddd3ed2 c_1/4BA4z2  | _1/4BcBc d2e3fed ced4z2  | 
w:   |   | 
defg f2e2 d2e2 c2d4c_1/4B  | A4 c2_1/4BA G2Bc ded4z2  | 
w:   |   | 
d4 c2d4cd cde2 d2c_1/4B  | c4 _1/4B2c4Bc Bcd2 c2B2  | 
w:   |   | 
c4 _1/4B2c3dcd cBc2 d2e2  | f2e2 d2c2 _1/4B2ed cBA4z2  | 
w:   |   | 
d4 c2d4cd cde2 d2c_1/4B  | c4 _1/4B2c4Bc Bcd2 c2B2  | 
w:   |   | 
c4 _1/4B2c3dcd cBc2 d2e2  | f2e2 d2c2 _1/4B2ed cBA4z2  | 
w:   |   | 
d4 c2d4cd cde2 d2c_1/4B  | c4 _1/4B2c4Bc Bcd2 c2B2  | 
w:   |   | 
c4 _1/4B2c3dcd cBc2 d2e2  | f2e2 d2c2 _1/4B2ed cBA4z2  | 
w:   |   | 
d4 c2d4cd cde2 d2c_1/4B  | c4 _1/4B2c4Bc Bcd2 c2B2  | 
w:   |   | 
c4 _1/4B2c3dcd cBc2 d2e2  | f2e2 d2c2 _1/4B2ed cBA4z2  | 
w:   |   | 
_1/4BABc B2A2 G2Bc Bcd4z2  | d4 cde3ded c_1/4Bc4z2  | 
w:   |   | 
c2d2 e2f2 g2f2 e2d2 c2_1/4B2  | A4 d2c_1/4B A2Bc Bcd4z2  | 
w:   |   | 
d4 c2d4cd cde2 d2c_1/4B  | c4 _1/4B2c4Bc Bcd2 c2B2  | 
w:   |   | 
c4 _1/4B2c3dcd cBc2 d2e2  | f2e2 d2c2 _1/4B2ed cBA4z2  | 
w:   |   | 
d4 c2d4cd cde2 d2c_1/4B  | c4 _1/4B2c4Bc Bcd2 c2B2  | 
w:   |   | 
c4 _1/4B2c3dcd cBc2 d2e2  | f2e2 d2c2 _1/4B2ed cBA4z2  | 
w:   |   | 
_1/4BABc B2A2 G2Bc Bcd4z2  | d4 cde3ded c_1/4Bc4z2  | 
w:   |   | 
c2d2 e2f2 g2f2 e2d2 c2_1/4B2  | A4 d2c_1/4B A2Bc Bcd4z2  | 
w:   |   | 
d4 e2^f4eg fed4z2  | d2e2 ^f2g2 a2ag gfg4z2  | \
w:   |   | 
^fga_1/4b c'2b2 a2ab ag=f2 e2d2  | 
w:   | 
c4 _1/4B2BA G2Bc Bcd4z2  | d4 c2d4cd cde2 d2c_1/4B  | 
w:   |   | 
c4 _1/4B2c4Bc Bcd2 c2B2  | c4 _1/4B2c3dcd cBc2 d2e2  | 
w:   |   | 
f2e2 d2c2 _1/4B2ed cBA4z2  | d4 c2d4cd cde2 d2c_1/4B  | 
w:   |   | 
c4 _1/4B2c4Bc Bcd2 c2B2  | c4 _1/4B2c3dcd cBc2 d2e2  | 
w:   |   | 
f2e2 d2c2 _1/4B2ed cBA4z2  | _1/4BABc B2A2 G2Bc Bcd4z2  | 
w:   |   | 
d4 cde3ded c_1/4Bc4z2  | c2d2 e2f2 g2f2 e2d2 c2_1/4B2  | 
w:   |   | 
A4 d2c_1/4B A2Bc Bcd4z2  | d4 e2^f4eg fed4z2  | \
w:   |   | 
d2e2 ^f2g2 a2ag gfg4z2  | 
w:   | 
^fga_1/4b c'2b2 a2ab ag=f2 e2d2  | \
w:   | 
c4 _1/4B2BA G2Bc Bcd4z2  | 
w:   | 
e2f2 g2f2 e2d2 c4 _1/4B2A4G2 e2f2 g2f2 e2d2 c2d2  | \
w:   | 
e2f4a2 g2a2 g2f2 e2f4g2 a4 z2_b2 a2c'2 b4  | 
w:   | 
a2g4a2 f4 z2a2 g2a2  | g2f2 e2g2 f2g2 f2e2 d2g2  | \
w:   |   | 
^f2a2 g2f2 _7/8e2e2 d2c2 c4  | 
w:   | 
z2f2 e2g2 e4 d2d2 c2e2  | c4 _1/4B2A2 B2e2 d2c2 B2A4A2 A4 z2e2 f2g2 f2e2  | 
w:   |   | 
d2c4_1/4B2 A4 G2e2 f2g2  | f2e2 d2c2 d2e2 f4 a2g2  | \
w:   |   | 
a2g2 f2e2 f4 g2a4z2  | 
w:   | 
_b2a2 c'2b4a2 g4 a2f4z2 a2g2 a2g2 f2e2 g2f2  | \
w:   | 
g2f2 e2d2 g2^f2 a2g2 f2_7/8e2  | 
w:   | 
_7/8e2d2 c2c4z2 f2=e2 g2e4d2 d2c2 e2c4_1/4B2 A2B2  | \
w:   | 
e2d2 c2_1/4B2 A4 A2A4z2  | 
w:   | 
d4 c2d4cd cde2 d2c_1/4B  | c4 _1/4B2c4Bc Bcd2 c2B2  | 
w:   |   | 
c4 _1/4B2c3dcd cBc2 d2e2  | f2e2 d2c2 _1/4B2ed cBA4z2  | 
w:   |   | 
d4 c2d4cd cde2 d2c_1/4B  | c4 _1/4B2c4Bc Bcd2 c2B2  | 
w:   |   | 
c4 _1/4B2c3dcd cBc2 d2e2  | f2e2 d2c2 _1/4B2ed cBA4z2  | 
w:   |   | 
_1/4BABc B2A2 G2Bc Bcd4z2  | d4 cde3ded c_1/4Bc4z2  | 
w:   |   | 
c2d2 e2f2 g2f2 e2d2 c2_1/4B2  | A4 d2c_1/4B A2Bc Bcd4z2  | 
w:   |   | 
d4 e2^f4eg fed4z2  | d2e2 ^f2g2 a2ag gfg4z2  | \
w:   |   | 
^fga_1/4b c'2b2 a2ab ag=f2 e2d2  | 
w:   | 
c4 _1/4B2BA G2Bc Bcd4z2  | e2f2 g2f2 e2d2 c4 _1/4B2A4G2 e2f2 g2f2 e2d2 c2d2  | 
w:   |   | 
e2f4a2 g2a2 g2f2 e2f4g2 a4 z2_b2 a2c'2 b4  | \
w:   | 
a2g4a2 f4 z2a2 g2a2  | 
w:   | 
g2f2 e2g2 f2g2 f2e2 d2g2  | ^f2a2 g2f2 _7/8e2e2 d2c2 c4  | \
w:   |   | 
z2f2 e2g2 e4 d2d2 c2e2  | 
w:   | 
c4 _1/4B2A2 B2e2 d2c2 B2A4A2 A4 z2e2 f2g2 f2e2  | \
w:   | 
d2c4_1/4B2 A4 G2e2 f2g2  | 
w:   | 
f2e2 d2c2 d2e2 f4 a2g2  | a2g2 f2e2 f4 g2a4z2  | \
w:   |   | 
_b2a2 c'2b4a2 g4 a2f4z2 a2g2 a2g2 f2e2 g2f2  | 
w:   | 
g2f2 e2d2 g2^f2 a2g2 f2_7/8e2  | _7/8e2d2 c2c4z2 f2=e2 g2e4d2 d2c2 e2c4_1/4B2 A2B2  | 
w:   |   | 
e2d2 c2_1/4B2 A4 A2A4z2  | |


